libs/icons/src/svg/arrow-down.svg

<svg width="16" height="16" viewBox="0 0 16 16" fill="none" xmlns="http://www.w3.org/2000/svg">
<path d="M2.86663 10.4666L7.53329 15.1333C7.59996 15.2 7.66663 15.2666 7.73329 15.2666C7.93329 15.3333 8.06663 15.3333 8.26663 15.2666C8.33329 15.2666 8.39996 15.2 8.46663 15.1333L13.1333 10.4666C13.4 10.2 13.4 9.79998 13.1333 9.53331C12.8666 9.26664 12.4666 9.26664 12.2 9.53331L8.66663 13.0666L8.66663 1.33331C8.66663 0.933312 8.39996 0.666645 7.99996 0.666645C7.59996 0.666645 7.33329 0.933312 7.33329 1.33331L7.33329 13.0666L3.79996 9.53331C3.66663 9.39998 3.53329 9.33331 3.33329 9.33331C3.13329 9.33331 2.99996 9.39998 2.86663 9.53331C2.59996 9.79998 2.59996 10.2 2.86663 10.4666Z" fill="#202327"/>
</svg>

<svg xmlns="http://www.w3.org/2000/svg" viewBox="0 0 16 16" class="sageicon"><path d="m2.867 10.467 4.666 4.666c.067.067.134.134.2.134.2.066.334.066.534 0 .066 0 .133-.067.2-.134l4.666-4.666a.644.644 0 0 0 0-.934.644.644 0 0 0-.933 0l-3.533 3.534V1.333c0-.4-.267-.666-.667-.666s-.667.266-.667.666v11.734L3.8 9.533a.605.605 0 0 0-.467-.2c-.2 0-.333.067-.466.2a.644.644 0 0 0 0 .934Z"/></svg>
